public/icons/check.svg

<svg width="56" height="56" viewBox="0 0 56 56" fill="none" xmlns="http://www.w3.org/2000/svg">
<path d="M27.9998 4.66667C15.1132 4.66667 4.6665 15.1134 4.6665 28C4.6665 40.8866 15.1132 51.3333 27.9998 51.3333C40.8865 51.3333 51.3332 40.8866 51.3332 28C51.3332 15.1134 40.8865 4.66667 27.9998 4.66667Z" fill="#736AE4" fill-opacity="0.25"/>
<path fill-rule="evenodd" clip-rule="evenodd" d="M36.6498 21.6834C37.561 22.5946 37.561 24.072 36.6498 24.9832L27.3164 34.3166C26.4052 35.2278 24.9278 35.2278 24.0166 34.3166L19.3499 29.6499C18.4387 28.7387 18.4387 27.2613 19.3499 26.3501C20.2611 25.4389 21.7385 25.4389 22.6498 26.3501L25.6665 29.3668L33.3499 21.6834C34.2611 20.7722 35.7385 20.7722 36.6498 21.6834Z" fill="#736AE4"/>
</svg>

<svg width="56" height="56" fill="none" xmlns="http://www.w3.org/2000/svg"><path d="M28 4.667C15.113 4.667 4.666 15.113 4.666 28c0 12.887 10.447 23.333 23.334 23.333 12.886 0 23.333-10.446 23.333-23.333C51.333 15.113 40.886 4.667 28 4.667Z" fill="#736AE4" fill-opacity=".25"/><path fill-rule="evenodd" clip-rule="evenodd" d="M36.65 21.683a2.333 2.333 0 0 1 0 3.3l-9.334 9.334a2.333 2.333 0 0 1-3.3 0L19.35 29.65a2.333 2.333 0 1 1 3.3-3.3l3.017 3.017 7.683-7.684a2.333 2.333 0 0 1 3.3 0Z" fill="#736AE4"/></svg>
